resources/images/view-page.svg

<?xml version="1.0" encoding="UTF-8" standalone="no"?>
<!-- Created with Inkscape (http://www.inkscape.org/) -->

<svg
   xmlns:dc="http://purl.org/dc/elements/1.1/"
   xmlns:cc="http://creativecommons.org/ns#"
   xmlns:rdf="http://www.w3.org/1999/02/22-rdf-syntax-ns#"
   xmlns:svg="http://www.w3.org/2000/svg"
   xmlns="http://www.w3.org/2000/svg"
   version="1.1"
   width="25"
   height="15"
   id="svg17805">
  <defs
     id="defs17807" />
  <metadata
     id="metadata17810">
    <rdf:RDF>
      <cc:Work
         rdf:about="">
        <dc:format>image/svg+xml</dc:format>
        <dc:type
           rdf:resource="http://purl.org/dc/dcmitype/StillImage" />
        <dc:title></dc:title>
      </cc:Work>
    </rdf:RDF>
  </metadata>
  <g
     transform="translate(-159.64355,-100.30805)"
     id="layer1">
    <path
       d="m 5.96875,1.625 0,2.6875 5.65625,0 0,-2.6875 -5.65625,0 z m 7.40625,0 0,2.6875 5.65625,0 0,-2.6875 -5.65625,0 z"
       transform="translate(159.64355,100.30805)"
       id="rect2996"
       style="fill:#252525;fill-opacity:1;stroke:none" />
    <path
       d="m 5.96875,6.15625 0,2.6875 5.65625,0 0,-2.6875 -5.65625,0 z m 7.40625,0 0,2.6875 5.65625,0 0,-2.6875 -5.65625,0 z"
       transform="translate(159.64355,100.30805)"
       id="rect3766"
       style="fill:#252525;fill-opacity:1;stroke:none" />
    <path
       d="m 5.96875,10.6875 0,2.6875 5.65625,0 0,-2.6875 -5.65625,0 z m 7.40625,0 0,2.6875 5.65625,0 0,-2.6875 -5.65625,0 z"
       transform="translate(159.64355,100.30805)"
       id="rect3768"
       style="fill:#252525;fill-opacity:1;stroke:none" />
  </g>
</svg>

<?xml version="1.0" encoding="UTF-8" standalone="no"?>
<!-- Created with Inkscape (http://www.inkscape.org/) -->

<svg
   xmlns:dc="http://purl.org/dc/elements/1.1/"
   xmlns:cc="http://creativecommons.org/ns#"
   xmlns:rdf="http://www.w3.org/1999/02/22-rdf-syntax-ns#"
   xmlns:svg="http://www.w3.org/2000/svg"
   xmlns="http://www.w3.org/2000/svg"
   xmlns:sodipodi="http://sodipodi.sourceforge.net/DTD/sodipodi-0.dtd"
   xmlns:inkscape="http://www.inkscape.org/namespaces/inkscape"
   width="25"
   height="15"
   id="svg17805"
   version="1.1"
   inkscape:version="0.48.2 r9819"
   sodipodi:docname="view-list-hi.svg">
  <defs
     id="defs17807" />
  <sodipodi:namedview
     id="base"
     pagecolor="#ffffff"
     bordercolor="#666666"
     borderopacity="1.0"
     inkscape:pageopacity="0.0"
     inkscape:pageshadow="2"
     inkscape:zoom="22.4"
     inkscape:cx="14.02561"
     inkscape:cy="8.8856053"
     inkscape:document-units="px"
     inkscape:current-layer="layer1"
     showgrid="false"
     fit-margin-top="5"
     fit-margin-left="5"
     fit-margin-right="5"
     fit-margin-bottom="5"
     inkscape:window-width="1216"
     inkscape:window-height="685"
     inkscape:window-x="178"
     inkscape:window-y="201"
     inkscape:window-maximized="0" />
  <metadata
     id="metadata17810">
    <rdf:RDF>
      <cc:Work
         rdf:about="">
        <dc:format>image/svg+xml</dc:format>
        <dc:type
           rdf:resource="http://purl.org/dc/dcmitype/StillImage" />
        <dc:title></dc:title>
      </cc:Work>
    </rdf:RDF>
  </metadata>
  <g
     inkscape:label="Capa 1"
     inkscape:groupmode="layer"
     id="layer1"
     transform="translate(-159.64355,-100.30805)">
    <path
       style="fill:#252525;fill-opacity:1;stroke:none"
       d="M 5.96875 1.625 L 5.96875 4.3125 L 11.625 4.3125 L 11.625 1.625 L 5.96875 1.625 z M 13.375 1.625 L 13.375 4.3125 L 19.03125 4.3125 L 19.03125 1.625 L 13.375 1.625 z "
       transform="translate(159.64355,100.30805)"
       id="rect2996" />
    <path
       style="fill:#252525;fill-opacity:1;stroke:none"
       d="M 5.96875 6.15625 L 5.96875 8.84375 L 11.625 8.84375 L 11.625 6.15625 L 5.96875 6.15625 z M 13.375 6.15625 L 13.375 8.84375 L 19.03125 8.84375 L 19.03125 6.15625 L 13.375 6.15625 z "
       transform="translate(159.64355,100.30805)"
       id="rect3766" />
    <path
       style="fill:#252525;fill-opacity:1;stroke:none"
       d="M 5.96875 10.6875 L 5.96875 13.375 L 11.625 13.375 L 11.625 10.6875 L 5.96875 10.6875 z M 13.375 10.6875 L 13.375 13.375 L 19.03125 13.375 L 19.03125 10.6875 L 13.375 10.6875 z "
       transform="translate(159.64355,100.30805)"
       id="rect3768" />
  </g>
</svg>
